dist/svg/u1F97E.svg

<?xml version="1.0" encoding="UTF-8"?><svg id="a" xmlns="http://www.w3.org/2000/svg" viewBox="0 0 40 40"><g><path d="M3.642,6.364l-.641,25.787c-.039,1.581,1.232,2.884,2.813,2.884h7.1c.555,0,1.082-.243,1.443-.665l.954-1.115c.534-.624,1.409-.835,2.168-.521l5.22,2.157c.23,.095,.476,.144,.725,.144h9.304c2.865,0,4.916-2.766,4.085-5.507l-.779-2.57c-.864-2.85-3.492-4.799-6.47-4.799h-3.161c-2.204,0-4.153-1.431-4.813-3.533l-3.974-12.657c-.188-.598-.743-1.006-1.37-1.006H5.077c-.779,0-1.416,.621-1.435,1.4Z" fill="#767676"/><path d="M15.082,18.416c.255,.883,1.177,1.393,2.06,1.138l4.346-1.253-.998-3.177-4.271,1.231c-.883,.255-1.393,1.177-1.138,2.06Z" fill="#4f4f4f"/><path d="M13.653,12.287c.255,.883,1.177,1.393,2.06,1.138l3.892-1.122-.998-3.177-3.816,1.1c-.883,.255-1.393,1.177-1.138,2.06Z" fill="#4f4f4f"/><path d="M5.814,35.036h7.1c.555,0,1.082-.243,1.443-.665l.954-1.115c.534-.625,1.409-.835,2.168-.521l5.22,2.157c.23,.095,.476,.144,.725,.144h9.304c2.865,0,4.916-2.766,4.085-5.507l-.016-.054H3.067l-.067,2.677c-.039,1.581,1.232,2.884,2.813,2.884Z" fill="#4f4f4f"/></g><rect width="40" height="40" fill="none"/></svg>

<svg id="Layer_1" data-name="Layer 1" xmlns="http://www.w3.org/2000/svg" viewBox="0 0 40 40"><defs><style>.cls-1{fill:#767676;}.cls-2{fill:#4f4f4f;}.cls-3{fill:none;}</style></defs><path class="cls-1" d="M3.642,6.364,3,32.152a2.814,2.814,0,0,0,2.813,2.884h7.1a1.9,1.9,0,0,0,1.443-.665l.954-1.116a1.9,1.9,0,0,1,2.168-.52l5.22,2.157a1.9,1.9,0,0,0,.726.144h9.3a4.268,4.268,0,0,0,4.084-5.507l-.779-2.57a6.761,6.761,0,0,0-6.47-4.8H26.4a5.046,5.046,0,0,1-4.813-3.534L17.616,5.97a1.435,1.435,0,0,0-1.37-1.006H5.077A1.436,1.436,0,0,0,3.642,6.364Z"/><path class="cls-2" d="M15.082,18.416a1.665,1.665,0,0,0,2.06,1.139L21.488,18.3l-1-3.177L16.22,16.356A1.664,1.664,0,0,0,15.082,18.416Z"/><path class="cls-2" d="M13.653,12.287a1.665,1.665,0,0,0,2.06,1.139L19.605,12.3l-1-3.177-3.816,1.1A1.664,1.664,0,0,0,13.653,12.287Z"/><path class="cls-2" d="M5.814,35.036h7.1a1.9,1.9,0,0,0,1.443-.665l.954-1.115a1.9,1.9,0,0,1,2.168-.521l5.22,2.157a1.9,1.9,0,0,0,.726.144h9.3a4.268,4.268,0,0,0,4.084-5.507l-.016-.054H3.067L3,32.152A2.814,2.814,0,0,0,5.814,35.036Z"/><rect class="cls-3" width="40" height="40"/></svg>
